!!!COM: Bartok, Bela
!!!OTL: Diminished Fifth
!!!ONM: 101
!!!OPR: Mikrokosmos, Vol. IV
!! Boosey & Hawkes Ltd. (London) 1955, copyright 1940 p.11
**kern	**kern
*M2/4	*M2/4
=1	=1
[2E-	8r
.	{8A
.	8B
.	8c
=2	=2
8E-]	4d
{8A-	.
8G-	[4A
8F	.
=3	=3
[2E-	8A}]
.	{8A
.	8B
.	8c
=4	=4
8E-}]	8d
{8E-	8c
8F	8B
8G-	8A
=5	=5
4A-	8c
.	8B
8E-}	8A}
8r	8r
=6	=6
[2d	8r
.	{8e-
.	8f
.	8g-
=7	=7
8d]	4a-
{8A	.
8B	[4e-
8c	.
=8	=8
4d	8e-}]
.	{8e-
[4A	8f
.	8g-
=9	=9
8A}]	8a-
{8A	8g-
8B	8f
8c	8e-
=10	=10
4.d	8f
.	8g-
.	8e-
8c#	8f
=11	=11
4d	8a-
.	8g-
8B}	8e-}
8r	8r
=12	=12
8r	[{2d-
{8c	.
8A	.
8c	.
=13	=13
[2G	8d-]
.	8e-
.	8d-
.	8g-
=14	=14
8G}]	4.d-
{8c	.
8A	.
8c	8e-
=15	=15
4G	8d-
.	8g-
8c	8d-
8G}	8e-}
=16	=16
8r	[{2B-
{8A	.
8F#	.
8A	.
=17	=17
4.E}	8B-]
.	8e-
.	8B-
{8A	8c
=18	=18
8F#	4.B-
8A	.
4E	.
.	8c}
=19	=19
2F#}	8r
.	{8e-
.	8c
.	8B-
=20	=20
8r	[2A
{8A-	.
8G-	.
8F	.
=21	=21
[2E-	8A}]
.	{8d
.	8c
.	8Bn
=22	=22
8E-}]	4A}
{8A-	.
8G-	[{4d
8F	.
=23	=23
4E-}	8d]
.	8c
{8A-	8B
8G-	8c
=24	=24
8F	4A}
8G-	.
4E-	{8d
.	8c
=25	=25
4A-	8B
.	8c
8G-}	8A}
8r	8r
=26	=26
8r	[{2f
{8e	.
8c#	.
8d	.
=27	=27
4.B}	8f]
.	8a-
.	8g
{8e	8b-
=28	=28
8c#	4f
8d	.
[4B	8b-
.	8g
=29	=29
8B}]	4.e-}
{8d	.
8B	.
8c#	{8f
=30	=30
4.An}	8a-
.	8f
.	[4d-
{8cn	.
=31	=31
8A	8d-}]
8B-	{8g-
4G}	8d-
.	8e-
=32	=32
8r	4B-
{8A	.
8F#	8c
8G	8B-}
=33	=33
4.En	4r
.	{4e-
8F#}	.
=34	=34
4G	4B-
4r	4c
=35	=35
8r	[2A
{8A-	.
8G-	.
8F	.
=36	=36
4A-	8A}]
.	{8A
[4E-	8B
.	8c
=37	=37
8E-}]	4d
{8E-	.
8F	[4A
8G-	.
=38	=38
4A-	8A}]
.	{8B
[4E-	8c
.	8d
=39	=39
8E-}]	8c
{8F	8B
8G-	4A}
8A-	.
=40	=40
4E-	{8d
.	8c
8F	8B
8G-	8A
=41	=41
8A-}	8B
{8E-	8c
8F	8d
8A-	8B
=42	=42
[2G-	4c
.	4G
=43	=43
4G-]	[2A
4D-	.
=44	=44
2E-;}	2A;}]
==	==
*-	*-
